;FLAVOR:Marlin
;TIME:1623.15
;Filament used:2.45205m
;Layer height: 0.2
;MINX:103.053
;MINY:67.438
;MINZ:0.2
;MAXX:116.947
;MAXY:152.562
;MAXZ:6.2
;OuterWall Time:101.558
;InnerWall Time:68.9719
;Skin Time:1413.56
;Support Time:0
;SkirtBrim Time:0
;Infill Time:0
;InfillSupport Time:0
;Combing Time:11.6889
;Retraction Time:27.3779
;PrimeTower Time:0

;
;
;
;
;
;
;
;
;
;
;
;
;
;
;
;
;
;
;
;
;
;
;
;
;
;
;
;
;
;
;
;
;
;
;
;
;
;
;
;
;
;
;
;
;
;
;
;
;
;
;
;
Creality Print GCode Generated by CXEngine
;CRSLICE_GIT_HASH:87dd5d0
;Creality Print Version : V4.3.6.6231
;CXEngine Release Time:2023-07-21 16:32:51
;Gcode Generated Time:2024-08-10 23:28:18
;----------Machine Config--------------
;Machine Name:Ender-3 V3 SE
;Machine Height:250
;Machine Width:220
;Machine Depth:220
;Material Type:PLA
;Material Name:CR-PLA_1.75
;Number of Extruders:1
;ExtruderParams[0] Nozzle Diameter:1000
;----------Profile Config---------------
;Layer Height:0.2
;Wall Thickness:0.8
;Top/Bottom Thickness:0.8
;Out Wall Line Width:0.4
;Inner Wall Line Width:0.4
;Inital Layer Height:200
;Wall Line Count:2
;Infill Line Distance:0.4
;Infill Pattern:lines
;Infill Sparse Density:100
;Infill Wipe Distance:0
;Print Temperature:205
;Bed Temperature:60
;Support Enable:false
;Support Density:15
;Support Angle:60
;Adhesion Type:autobrim
;machine is belt:false
;machine belt offset:10
;machine belt offset Y:0
;Raft Base Line Spacing:1.6
;Wait Heatup Sync:true
;Enable Ironing:false
;Material Type:PLA
;Max volumetric speed:20
;----------Shell Config----------------
;Outer Wall Wipe Distance:200
;Outer Inset First:false
;Infill Before Walls:false
;Infill Overlap:0
;Fill Gaps Between Walls:everywhere
;Minimum Infill Area:15
;Top Surface Skin Layer:0
;Top Layers:0
;Z Seam Alignment:sharpest_corner
;Seam Corner Preference:z_seam_corner_inner
;Z Seam X:110
;Z Seam Y:220
;Horizontal Expansion:0
;Top/Bottom Pattern:zigzag
;Ironing Pattern:zigzag
;Vase Model:false
;----------Support Config----------------
;Support Type:everywhere
;Support Pattern:zigzag
;Support Infill Layer Thickness:0.15
;Minimum Support Area:5
;Enable Support Roof:true
;Support Roof Thickness:0.8
;Support Roof Pattern:lines
;Connect Support Lines:0
;Connect Support ZigZags:1
;Minimum Support X/Y Distance:0.2
;Support Line Distance:2.67
; ---------PrintSpeed & Travel----------
;Enable Print Cool:true
;Avoid Printed Parts Traveling:true
;Enable Retraction:true
;Retraction Distance:0.8
;Retraction Speed:40
;Retraction Prime Speed:40
;Maximum Retraction Count:100
;Minimum Extrusion Distance Window:0.8
;Z Hop When Retracted:false
;Z Hop Height:0.2
;Retract Before Outer Wall:true

;Outer Wall Speed:60
;Inner Wall Speed:90
;Infill Speed:180
;Top/Bottom Speed:50
;Travel Speed:150
;Initial Layer Speed:30
;Skirt/Brim Speed:25
;Prime Tower Speed:60
;Outer Wall Acceleration:1000
;Inner Wall Acceleration:2000
;Infill Acceleration:2500
;Top/Bottom Acceleration:2500
;Travel Acceleration:2500
;Initial Layer Print Acceleration:500
;Initial Layer Travel Acceleration:500
;Skirt/Brim Acceleration:500
;Combing Mode:noskin
; --------SpecialModel&Mesh Fixes--------
;Union Overlapping Volum:true
;Remove All Holes:false
;Maximum Travel Resolution:0.25
;Maximum Deviation:0.05
;Maximum Model Angle:0.872767
;IS Mold Print:false
;Make Overhang Printable:false
;Enable Coasting:false
;Coasting Volumes:0.064
;Coasting Speed:0.9
;Raft AirGap:0.25
;Layer0 ZOverLap:0.13
;---------------------End of Head--------------------------
M140 S60
M105
M190 S60
M104 S205
M82 ;absolute extrusion mode
M220 S100 ;Reset Feedrate
M221 S100 ;Reset Flowrate

G28 ;Home

G92 E0 ;Reset Extruder
G1 Z2.0 F3000 ;Move Z Axis up
G1 X10.1 Y20 Z0.28 F5000.0 ;Move to start position
M109 S205.000000
G1 X10.1 Y145.0 Z0.28 F1500.0 E15 ;Draw the first line
G1 X10.4 Y145.0 Z0.28 F5000.0 ;Move to side a little
G1 X10.4 Y20 Z0.28 F1500.0 E30 ;Draw the second line
G92 E0  ;Reset Extruder
G1 E-1.0000 F1800 ;Retract a bit
G1 Z2.0 F3000 ;Move Z Axis up
G1 E0.0000 F1800 

G92 E0
G92 E0
G1 F2400 E-0.8
;LAYER_COUNT:31

;LAYER:0
M106 S0
M106 P2 S0
M204 S500
;MESH:0_0
G0 F4800 X103.453 Y68.683 Z0.2
;TYPE:WALL-INNER
G1 F2400 E0
G1 F1800 X103.453 Y151.317 E2.7481
G1 X116.547 Y133.05 E3.49554
G1 X116.547 Y89.054 E4.95868
G1 X116.547 Y86.95 E5.02865
G1 X103.453 Y68.683 E5.77609
G0 F4800 X103.789 Y69.324
G0 X103.283 Y68.154
G0 X103.053 Y67.438
;TYPE:WALL-OUTER
G1 F1800 X103.053 Y152.562 E8.55038
G1 X116.947 Y133.179 E9.32762
G1 X116.947 Y89.054 E10.76571
G1 X116.947 Y86.821 E10.83848
G1 X103.053 Y67.438 E11.61573
G0 F4800 X103.053 Y67.638
G0 X103.283 Y68.154
G0 X104.061 Y69.703
G0 X103.833 Y69.865
;TYPE:SKIN
G1 F1800 X103.833 Y150.135 E14.28521
G1 X116.167 Y132.927 E14.9893
G1 X116.167 Y89.055 E16.44832
G1 X116.167 Y87.073 E16.51423
G1 X103.833 Y69.865 E17.21832
G1 X104.031 Y70.656
G1 X104.458 Y71.082 E17.23838
G1 X104.031 Y71.221
G1 X105.889 Y73.08 E17.32579
G0 F4800 X106.281 Y72.8
G0 X103.641 Y69.267
G0 X103.553 Y72.918
G0 X104.031 Y72.918
G1 F1800 X110.185 Y79.072 E17.61522
G0 F4800 X110.577 Y78.792
G0 X109.145 Y76.795
G0 X108.753 Y77.075
G1 F1800 X104.031 Y72.353 E17.83731
G1 X104.031 Y71.787
G1 X107.321 Y75.077 E17.99204
G0 F4800 X107.713 Y74.797
G0 X103.641 Y69.267
G0 X103.553 Y75.181
G0 X104.031 Y75.181
G1 F1800 X115.913 Y87.063 E18.55087
G1 X115.966 Y87.682
G1 X104.031 Y75.747 E19.11219
G1 X104.031 Y76.313
G1 X115.966 Y88.248 E19.67351
G1 X115.966 Y88.814
G1 X104.031 Y76.878 E20.23485
G1 X104.031 Y77.444
G1 X115.966 Y89.379 E20.79617
G1 X115.966 Y89.945
G1 X104.031 Y78.01 E21.35749
G1 X104.031 Y78.575
G1 X115.966 Y90.511 E21.91883
G1 X115.966 Y91.076
G1 X104.031 Y79.141 E22.48015
G1 X104.031 Y79.707
G1 X115.966 Y91.642 E23.04147
G1 X115.966 Y92.208
G1 X104.031 Y80.272 E23.60282
G1 X104.031 Y80.838
G1 X115.966 Y92.773 E24.16414
G1 X115.966 Y93.339
G1 X104.031 Y81.404 E24.72546
G1 X104.031 Y81.969
G1 X115.966 Y93.905 E25.2868
G1 X115.966 Y94.47
G1 X104.031 Y82.535 E25.84812
G1 X104.031 Y83.101
G1 X115.966 Y95.036 E26.40944
G1 X115.966 Y95.602
G1 X104.031 Y83.666 E26.97079
G1 X104.031 Y84.232
G1 X115.966 Y96.167 E27.53211
G1 X115.966 Y96.733
G1 X104.031 Y84.798 E28.09343
G1 X104.031 Y85.364
G1 X115.966 Y97.299 E28.65475
G1 X115.966 Y97.864
G1 X104.031 Y85.929 E29.21607
G1 X104.031 Y86.495
G1 X115.966 Y98.43 E29.77739
G1 X115.966 Y98.996
G1 X104.031 Y87.061 E30.33871
G1 X104.031 Y87.626
G1 X115.966 Y99.562 E30.90005
G1 X115.966 Y100.127
G1 X104.031 Y88.192 E31.46137
G1 X104.031 Y88.758
G1 X115.966 Y100.693 E32.02269
G1 X115.966 Y101.259
G1 X104.031 Y89.323 E32.58404
G1 X104.031 Y89.889
G1 X115.966 Y101.824 E33.14536
G1 X115.966 Y102.39
G1 X104.031 Y90.455 E33.70668
G1 X104.031 Y91.02
G1 X115.966 Y102.956 E34.26802
G1 X115.966 Y103.521
G1 X104.031 Y91.586 E34.82934
G1 X104.031 Y92.152
G1 X115.966 Y104.087 E35.39066
G1 X115.966 Y104.653
G1 X104.031 Y92.717 E35.952
G1 X104.031 Y93.283
G1 X115.966 Y105.218 E36.51332
G1 X115.966 Y105.784
G1 X104.031 Y93.849 E37.07464
G1 X104.031 Y94.415
G1 X115.966 Y106.35 E37.63596
G1 X115.966 Y106.915
G1 X104.031 Y94.98 E38.19728
G1 X104.031 Y95.546
G1 X115.966 Y107.481 E38.7586
G1 X115.966 Y108.047
G1 X104.031 Y96.112 E39.31992
G1 X104.031 Y96.677
G1 X115.966 Y108.613 E39.88127
G1 X115.966 Y109.178
G1 X104.031 Y97.243 E40.44259
G1 X104.031 Y97.809
G1 X115.966 Y109.744 E41.00391
G1 X115.966 Y110.31
G1 X104.031 Y98.374 E41.56525
G1 X104.031 Y98.94
G1 X115.966 Y110.875 E42.12657
G1 X115.966 Y111.441
G1 X104.031 Y99.506 E42.68789
G1 X104.031 Y100.071
G1 X115.966 Y112.007 E43.24924
G1 X115.966 Y112.572
G1 X104.031 Y100.637 E43.81056
G1 X104.031 Y101.203
G1 X115.966 Y113.138 E44.37188
G1 X115.966 Y113.704
G1 X104.031 Y101.768 E44.93322
G1 X104.031 Y102.334
G1 X115.966 Y114.269 E45.49454
G1 X115.966 Y114.835
G1 X104.031 Y102.9 E46.05586
G1 X104.031 Y103.465
G1 X115.966 Y115.401 E46.6172
G1 X115.966 Y115.966
G1 X104.031 Y104.031 E47.17852
G1 X104.031 Y104.597
G1 X115.966 Y116.532 E47.73984
G1 X115.966 Y117.098
G1 X104.031 Y105.163 E48.30116
G1 X104.031 Y105.728
G1 X115.966 Y117.663 E48.86249
G1 X115.966 Y118.229
G1 X104.031 Y106.294 E49.42381
G1 X104.031 Y106.86
G1 X115.966 Y118.795 E49.98513
G1 X115.966 Y119.361
G1 X104.031 Y107.425 E50.54647
G1 X104.031 Y107.991
G1 X115.966 Y119.926 E51.10779
G1 X115.966 Y120.492
G1 X104.031 Y108.557 E51.66911
G1 X104.031 Y109.122
G1 X115.966 Y121.058 E52.23045
G1 X115.966 Y121.623
G1 X104.031 Y109.688 E52.79177
G1 X104.032 Y110.254
G1 X115.966 Y122.189 E53.35307
G1 X115.966 Y122.755
G1 X104.032 Y110.82 E53.91437
G1 X104.032 Y111.386
G1 X115.966 Y123.32 E54.47564
G1 X115.966 Y123.886
G1 X104.032 Y111.951 E55.03694
G1 X104.032 Y112.517
G1 X115.966 Y124.452 E55.59823
G1 X115.966 Y125.017
G1 X104.032 Y113.083 E56.15951
G1 X104.032 Y113.649
G1 X115.966 Y125.583 E56.72078
G1 X115.966 Y126.149
G1 X104.032 Y114.214 E57.28208
G1 X104.032 Y114.78
G1 X115.966 Y126.714 E57.84335
G1 X115.966 Y127.28
G1 X104.032 Y115.346 E58.40462
G1 X104.032 Y115.911
G1 X115.966 Y127.846 E58.96592
G1 X115.966 Y128.412
G1 X104.032 Y116.477 E59.52722
G1 X104.032 Y117.043
G1 X115.966 Y128.977 E60.08849
G1 X115.966 Y129.543
G1 X104.032 Y117.608 E60.64979
G1 X104.032 Y118.174
G1 X115.966 Y130.109 E61.21108
G1 X115.966 Y130.674
G1 X104.032 Y118.74 E61.77236
G1 X104.032 Y119.305
G1 X115.966 Y131.24 E62.33365
G1 X115.966 Y131.806
G1 X104.032 Y119.871 E62.89495
G1 X104.032 Y120.437
G1 X115.966 Y132.371 E63.45622
G1 X115.935 Y132.905
G1 X104.032 Y121.002 E64.01604
G1 X104.032 Y121.568
G1 X115.698 Y133.235 E64.56473
G1 X115.462 Y133.564
G1 X104.032 Y122.134 E65.1023
G1 X104.032 Y122.699
G1 X115.226 Y133.894 E65.62879
G1 X114.99 Y134.223
G1 X104.032 Y123.265 E66.14416
G1 X104.032 Y123.831
G1 X114.754 Y134.553 E66.64843
G1 X114.518 Y134.882
G1 X104.032 Y124.397 E67.14158
G1 X104.032 Y124.962
G1 X114.281 Y135.212 E67.62363
G1 X114.045 Y135.541
G1 X104.032 Y125.528 E68.09456
G1 X104.032 Y126.094
G1 X113.809 Y135.871 E68.55438
G1 X113.573 Y136.2
G1 X104.032 Y126.659 E69.00311
G1 X104.032 Y127.225
G1 X113.337 Y136.53 E69.44074
G1 X113.101 Y136.859
G1 X104.032 Y127.791 E69.86724
G1 X104.032 Y128.356
G1 X112.864 Y137.189 E70.28265
G1 X112.628 Y137.518
G1 X104.032 Y128.922 E70.68693
G1 X104.032 Y129.488
G1 X112.392 Y137.848 E71.08011
G1 X112.156 Y138.177
G1 X104.032 Y130.053 E71.46219
G1 X104.032 Y130.619
G1 X111.92 Y138.507 E71.83318
G1 X111.683 Y138.836
G1 X104.032 Y131.185 E72.19302
G1 X104.032 Y131.75
G1 X111.447 Y139.166 E72.54178
G1 X111.211 Y139.495
G1 X104.032 Y132.316 E72.87942
G1 X104.032 Y132.882
G1 X110.975 Y139.825 E73.20596
G1 X110.739 Y140.154
G1 X104.032 Y133.448 E73.52137
G1 X104.032 Y134.013
G1 X110.503 Y140.484 E73.82571
G1 X110.266 Y140.813
G1 X104.032 Y134.579 E74.11891
G1 X104.032 Y135.145
G1 X110.03 Y141.143 E74.401
G1 X109.794 Y141.472
G1 X104.032 Y135.71 E74.672
G1 X104.032 Y136.276
G1 X109.558 Y141.802 E74.93189
G1 X109.322 Y142.131
G1 X104.032 Y136.842 E75.18066
G1 X104.032 Y137.407
G1 X109.086 Y142.461 E75.41836
G1 X108.849 Y142.791
G1 X104.032 Y137.973 E75.64494
G1 X104.032 Y138.539
G1 X108.613 Y143.12 E75.86039
G1 X108.377 Y143.45
G1 X104.032 Y139.104 E76.06476
G1 X104.032 Y139.67
G1 X108.141 Y143.779 E76.25801
G1 X107.905 Y144.109
G1 X104.032 Y140.236 E76.44017
G1 X104.032 Y140.801
G1 X107.669 Y144.438 E76.61122
G1 X107.432 Y144.768
G1 X104.032 Y141.367 E76.77115
G1 X104.032 Y141.933
G1 X107.196 Y145.097 E76.91996
G1 X106.96 Y145.427
G1 X104.032 Y142.498 E77.05769
G1 X104.032 Y143.064
G1 X106.724 Y145.756 E77.1843
G1 X106.488 Y146.086
G1 X104.032 Y143.63 E77.29981
G1 X104.032 Y144.196
G1 X106.251 Y146.415 E77.40417
G1 X106.015 Y146.745
G1 X104.032 Y144.761 E77.49746
G1 X104.032 Y145.327
G1 X105.779 Y147.074 E77.57962
G1 X105.543 Y147.404
G1 X104.032 Y145.893 E77.65068
G1 X104.032 Y146.458
G1 X105.307 Y147.733 E77.71065
G1 X105.071 Y148.063
G1 X104.032 Y147.024 E77.75952
G1 X104.032 Y147.59
G1 X104.834 Y148.392 E77.79723
G1 X104.598 Y148.722
G1 X104.032 Y148.155 E77.82388
G1 X104.032 Y148.721
G1 X104.362 Y149.051 E77.8394
G1 X104.032 Y149.287
G1 X104.126 Y149.381 E77.84382
;;retract;;
G1 F2400 E77.28382
G1 X104.497 Y147.416 E77.05582
G1 F2400 E77.04382
G0 F4800 X104.516 Y149.662
G0 X116.385 Y132.998
G0 X116.385 Y87.002
G0 X114.873 Y84.785
G1 F2400 E77.84382
G0 F4800 X114.481 Y85.065
G1 F1800 X104.031 Y74.616 E78.33527
G1 X104.031 Y74.05
G1 X113.049 Y83.068 E78.7594
G0 F4800 X113.441 Y82.788
G0 X112.009 Y80.79
G0 X111.617 Y81.07
G1 F1800 X104.031 Y73.484 E79.11618
;MESH:NONMESH
G0 F600 X104.031 Y73.484 Z0.4
G0 F4800 X103.553 Y73.484
G0 X103.641 Y69.267
G0 X103.453 Y68.683
;TIME_ELAPSED:95.365058

;LAYER:1
M106 S127.5
M204 S1250
;TYPE:WALL-INNER
;MESH:0_0
G1 F3600 X103.453 Y151.317 E81.86428
G1 X116.547 Y133.05 E82.61172
G1 X116.547 Y89.054 E84.07486
G1 X116.547 Y86.95 E84.14484
G1 X103.453 Y68.683 E84.89228
M204 S1500
G0 F6900 X103.789 Y69.324
G0 X103.283 Y68.154
G0 X103.053 Y67.438
M204 S750
;TYPE:WALL-OUTER
G1 F2700 X103.053 Y67.838 E84.90531
G1 X103.053 Y152.161 E87.6535
G1 X103.053 Y152.562 E87.66656
G1 X103.286 Y152.236 E87.67962
G1 X116.713 Y133.504 E88.43076
G1 X116.947 Y133.179 E88.44381
G1 X116.947 Y132.778 E88.45688
G1 X116.947 Y89.454 E89.86886
G1 X116.947 Y89.054 E89.88189
G1 X116.947 Y86.821 E89.95467
G1 X116.713 Y86.495 E89.96775
G1 X103.286 Y67.763 E90.71888
G1 X103.053 Y67.438 E90.73191
M204 S1500
G0 F6900 X103.053 Y67.638
G0 X103.283 Y68.154
G0 X104.061 Y69.703
G0 X103.833 Y69.865
;TYPE:SKIN
G1 F2400 X103.833 Y150.135 E93.40139
G1 X116.167 Y132.927 E94.10548
G1 X116.167 Y89.055 E95.5645
G1 X116.167 Y87.073 E95.63042
G1 X103.833 Y69.865 E96.33451
G0 F6900 X104.061 Y69.703
G0 X104.786 Y70.714
G0 X104.231 Y71.11
G1 F2400 X104.475 Y71.452 E96.34848
G1 X104.232 Y71.695 E96.35991
G1 X104.232 Y72.261 E96.37873
G1 X104.711 Y71.781 E96.40128
G1 X104.948 Y72.111 E96.4148
G1 X104.232 Y72.827 E96.44847
G1 X104.232 Y73.392 E96.46726
G1 X105.184 Y72.44 E96.51203
G1 X105.42 Y72.77 E96.52553
G1 X104.232 Y73.958 E96.5814
G1 X104.232 Y74.524 E96.60022
G1 X105.656 Y73.099 E96.66722
G1 X105.892 Y73.429 E96.68071
G1 X104.232 Y75.089 E96.75878
G1 X104.232 Y75.655 E96.77761
G1 X106.128 Y73.759 E96.86678
G1 X106.365 Y74.088 E96.88026
G1 X104.232 Y76.221 E96.98058
G1 X104.232 Y76.786 E96.99937
G1 X106.601 Y74.418 E97.11076
G1 X106.837 Y74.747 E97.12423
G1 X104.232 Y77.352 E97.24675
G1 X104.232 Y77.918 E97.26557
G1 X107.073 Y75.077 E97.39919
G1 X107.309 Y75.406 E97.41265
G1 X104.232 Y78.483 E97.55737
G1 X104.232 Y79.049 E97.57619
G1 X107.545 Y75.736 E97.732
G1 X107.782 Y76.065 E97.74549
G1 X104.232 Y79.615 E97.91245
G1 X104.232 Y80.18 E97.93124
G1 X108.018 Y76.395 E98.10928
G1 X108.254 Y76.724 E98.12274
G1 X104.232 Y80.746 E98.3119
G1 X104.232 Y81.312 E98.33073
G1 X108.49 Y77.054 E98.53099
G1 X108.726 Y77.383 E98.54445
G1 X104.232 Y81.878 E98.75583
G1 X104.232 Y82.443 E98.77462
G1 X108.963 Y77.713 E98.99711
G1 X109.199 Y78.042 E99.01057
G1 X104.232 Y83.009 E99.24418
G1 X104.232 Y83.575 E99.263
G1 X109.435 Y78.372 E99.5077
G1 X109.671 Y78.701 E99.52117
G1 X104.232 Y84.14 E99.77697
G1 X104.232 Y84.706 E99.7958
G1 X109.907 Y79.031 E100.0627
G1 X110.143 Y79.36 E100.07617
G1 X104.232 Y85.272 E100.35419
G1 X104.232 Y85.837 E100.37298
G1 X110.38 Y79.69 E100.66211
G1 X110.616 Y80.019 E100.67557
G1 X104.232 Y86.403 E100.97582
G1 X104.232 Y86.969 E100.99464
G1 X110.852 Y80.349 E101.30599
G1 X111.088 Y80.678 E101.31946
G1 X104.232 Y87.534 E101.6419
G1 X104.232 Y88.1 E101.66073
