;FLAVOR:Marlin
;TIME:518.917
;Filament used:0.507158m
;Layer height: 0.2
;MINX:99.002
;MINY:101.571
;MINZ:0.2
;MAXX:120.998
;MAXY:118.429
;MAXZ:9.4
;OuterWall Time:179.009
;InnerWall Time:91.6516
;Skin Time:153.11
;Support Time:0
;SkirtBrim Time:0
;Infill Time:44.4505
;InfillSupport Time:0
;Combing Time:42.5475
;Retraction Time:8.14847
;PrimeTower Time:0

;
;
;
;
;
;
;
;
;
;
;
;
;
;
;
;
;
;
;
;
;
;
;
;
;
;
;
;
;
;
;
;
;
;
;
;
;
;
;
;
;
;
;
;
;
;
;
;
;

;Creality Print GCode Generated by CXEngine
;CRSLICE_GIT_HASH:87dd5d0
;Creality Print Version : V4.3.6.6231
;CXEngine Release Time:2023-07-21 16:32:51
;Gcode Generated Time:2024-07-08 20:14:51
;----------Machine Config--------------
;Machine Name:Ender-3 V3 SE
;Machine Height:250
;Machine Width:220
;Machine Depth:220
;Material Type:PLA
;Material Name:CR-PLA_1.75
;Number of Extruders:1
;ExtruderParams[0] Nozzle Diameter:1000
;----------Profile Config---------------
;Layer Height:0.2
;Wall Thickness:0.8
;Top/Bottom Thickness:0.8
;Out Wall Line Width:0.4
;Inner Wall Line Width:0.4
;Inital Layer Height:200
;Wall Line Count:2
;Infill Line Distance:8
;Infill Pattern:grid
;Infill Sparse Density:10
;Infill Wipe Distance:0
;Print Temperature:205
;Bed Temperature:60
;Support Enable:false
;Support Density:15
;Support Angle:60
;Adhesion Type:autobrim
;machine is belt:false
;machine belt offset:10
;machine belt offset Y:0
;Raft Base Line Spacing:1.6
;Wait Heatup Sync:true
;Enable Ironing:false
;Material Type:PLA
;Max volumetric speed:20
;----------Shell Config----------------
;Outer Wall Wipe Distance:200
;Outer Inset First:false
;Infill Before Walls:false
;Infill Overlap:0.04
;Fill Gaps Between Walls:everywhere
;Minimum Infill Area:15
;Top Surface Skin Layer:0
;Top Layers:4
;Z Seam Alignment:sharpest_corner
;Seam Corner Preference:z_seam_corner_inner
;Z Seam X:110
;Z Seam Y:220
;Horizontal Expansion:0
;Top/Bottom Pattern:zigzag
;Ironing Pattern:zigzag
;Vase Model:false
;----------Support Config----------------
;Support Type:everywhere
;Support Pattern:zigzag
;Support Infill Layer Thickness:0.15
;Minimum Support Area:5
;Enable Support Roof:true
;Support Roof Thickness:0.8
;Support Roof Pattern:lines
;Connect Support Lines:0
;Connect Support ZigZags:1
;Minimum Support X/Y Distance:0.2
;Support Line Distance:2.67
; ---------PrintSpeed & Travel----------
;Enable Print Cool:true
;Avoid Printed Parts Traveling:true
;Enable Retraction:true
;Retraction Distance:0.8
;Retraction Speed:40
;Retraction Prime Speed:40
;Maximum Retraction Count:100
;Minimum Extrusion Distance Window:0.8
;Z Hop When Retracted:false
;Z Hop Height:0.2
;Retract Before Outer Wall:true

;Outer Wall Speed:60
;Inner Wall Speed:90
;Infill Speed:180
;Top/Bottom Speed:50
;Travel Speed:150
;Initial Layer Speed:30
;Skirt/Brim Speed:25
;Prime Tower Speed:60
;Outer Wall Acceleration:1000
;Inner Wall Acceleration:2000
;Infill Acceleration:2500
;Top/Bottom Acceleration:2500
;Travel Acceleration:2500
;Initial Layer Print Acceleration:500
;Initial Layer Travel Acceleration:500
;Skirt/Brim Acceleration:500
;Combing Mode:noskin
; --------SpecialModel&Mesh Fixes--------
;Union Overlapping Volum:true
;Remove All Holes:false
;Maximum Travel Resolution:0.25
;Maximum Deviation:0.05
;Maximum Model Angle:0.872767
;IS Mold Print:false
;Make Overhang Printable:false
;Enable Coasting:false
;Coasting Volumes:0.064
;Coasting Speed:0.9
;Raft AirGap:0.25
;Layer0 ZOverLap:0.13
;---------------------End of Head--------------------------
M140 S60
M105
M190 S60
M104 S205
M82 ;absolute extrusion mode
M220 S100 ;Reset Feedrate
M221 S100 ;Reset Flowrate

G28 ;Home

G92 E0 ;Reset Extruder
G1 Z2.0 F3000 ;Move Z Axis up
G1 X10.1 Y20 Z0.28 F5000.0 ;Move to start position
M109 S205.000000
G1 X10.1 Y145.0 Z0.28 F1500.0 E15 ;Draw the first line
G1 X10.4 Y145.0 Z0.28 F5000.0 ;Move to side a little
G1 X10.4 Y20 Z0.28 F1500.0 E30 ;Draw the second line
G92 E0  ;Reset Extruder
G1 E-1.0000 F1800 ;Retract a bit
G1 Z2.0 F3000 ;Move Z Axis up
G1 E0.0000 F1800 

G92 E0
G92 E0
G1 F2400 E-0.8
;LAYER_COUNT:47

;LAYER:0
M106 S0
M106 P2 S0
M204 S500
;MESH:0_0
G0 F4800 X99.404 Y110.006 Z0.2
;TYPE:WALL-INNER
G1 F2400 E0
G1 F1800 X99.577 Y111.875 E0.06242
G1 X100.086 Y113.679 E0.12476
G1 X100.912 Y115.362 E0.18711
G1 X102.044 Y116.876 E0.24997
G1 X103.293 Y118.029 E0.3065
G1 X116.707 Y118.029 E0.7526
G1 X117.956 Y116.876 E0.80913
G1 X119.088 Y115.362 E0.872
G1 X119.914 Y113.679 E0.93435
G1 X120.423 Y111.875 E0.99668
G1 X120.528 Y110.734 E1.03479
G1 X120.596 Y109.994 E1.0595
G1 X120.423 Y108.12 E1.12209
G1 X119.913 Y106.319 E1.18434
G1 X119.088 Y104.638 E1.24661
G1 X117.956 Y103.124 E1.30948
G1 X116.707 Y101.971 E1.36601
G1 X103.293 Y101.971 E1.81211
G1 X102.044 Y103.124 E1.86864
G1 X100.912 Y104.638 E1.93151
G1 X100.086 Y106.321 E1.99386
G1 X99.577 Y108.12 E2.05603
G1 X99.404 Y110.006 E2.11902
G0 F4800 X99.002 Y110.006
;TYPE:WALL-OUTER
G1 F1800 X99.182 Y111.948 E2.18258
G1 X99.711 Y113.822 E2.24604
G1 X100.569 Y115.572 E2.30956
G1 X101.745 Y117.145 E2.37357
G1 X103.136 Y118.429 E2.43527
G1 X116.864 Y118.429 E2.88268
G1 X118.255 Y117.145 E2.94438
G1 X119.431 Y115.572 E3.00838
G1 X120.289 Y113.822 E3.0719
G1 X120.818 Y111.948 E3.13537
G1 X120.926 Y110.771 E3.17389
G1 X120.998 Y109.994 E3.19932
G1 X120.818 Y108.047 E3.26305
G1 X120.288 Y106.175 E3.32645
G1 X119.431 Y104.428 E3.38987
G1 X118.255 Y102.855 E3.45388
G1 X116.864 Y101.571 E3.51558
G1 X103.136 Y101.571 E3.96299
G1 X101.745 Y102.855 E4.02468
G1 X100.569 Y104.428 E4.08869
G1 X99.711 Y106.178 E4.15221
G1 X99.182 Y108.047 E4.21552
G1 X99.002 Y110.006 E4.27963
G0 F4800 X99.02 Y110.205
G0 X99.785 Y110.01
;TYPE:SKIN
G1 F1800 X99.953 Y111.808 E4.33969
G1 X100.441 Y113.537 E4.39944
G1 X101.23 Y115.155 E4.4593
G1 X102.323 Y116.616 E4.51998
G1 X103.441 Y117.649 E4.5706
G1 X116.559 Y117.649 E5.00686
G1 X117.677 Y116.616 E5.05748
G1 X118.77 Y115.155 E5.11816
G1 X119.559 Y113.537 E5.17802
G1 X120.047 Y111.805 E5.23787
G1 X120.149 Y110.699 E5.2748
G1 X120.215 Y109.99 E5.29849
G1 X120.047 Y108.185 E5.35877
G1 X119.558 Y106.46 E5.4184
G1 X118.77 Y104.845 E5.47816
G1 X117.677 Y103.384 E5.53884
G1 X116.559 Y102.351 E5.58946
G1 X103.441 Y102.351 E6.02572
G1 X102.323 Y103.384 E6.07634
G1 X101.23 Y104.845 E6.13702
G1 X100.441 Y106.463 E6.19688
G1 X99.953 Y108.185 E6.25641
G1 X99.785 Y110.01 E6.31736
G0 F4800 X99.507 Y109.984
G0 X99.736 Y111.845
G0 X100.236 Y113.621
G0 X101.049 Y115.278
G0 X102.052 Y116.618
G0 X103.275 Y117.875
G0 X103.871 Y117.448
G1 F1800 X101.332 Y114.909 E6.43677
G0 F4800 X100.904 Y115.118
G0 X100.362 Y114.015
G0 X100.793 Y113.804
G1 F1800 X104.437 Y117.448 E6.60815
G1 X105.003 Y117.448
G1 X100.474 Y112.919 E6.82116
G1 X100.252 Y112.132
G1 X105.568 Y117.448 E7.07118
G1 X106.134 Y117.448
G1 X100.119 Y111.432 E7.35409
G1 X100.06 Y110.808
G1 X106.7 Y117.448 E7.66638
G1 X107.265 Y117.448
G1 X100.001 Y110.184 E8.00802
G1 X100.019 Y109.636
G1 X107.831 Y117.448 E8.37543
G1 X108.397 Y117.448
G1 X100.067 Y109.118 E8.7672
G1 X100.115 Y108.6
G1 X108.963 Y117.448 E9.18333
G1 X109.528 Y117.448
G1 X100.183 Y108.103 E9.62284
G1 X100.308 Y107.661
G1 X110.094 Y117.448 E10.08312
G1 X110.66 Y117.448
G1 X100.433 Y107.221 E10.56411
G1 X100.557 Y106.78
G1 X111.225 Y117.448 E11.06584
G1 X111.791 Y117.448
G1 X100.708 Y106.365 E11.58709
G1 X100.894 Y105.986
G1 X112.357 Y117.448 E12.12618
G1 X112.922 Y117.448
G1 X101.08 Y105.605 E12.68315
G1 X101.266 Y105.225
G1 X113.488 Y117.448 E13.258
G1 X114.054 Y117.448
G1 X101.466 Y104.861 E13.85
G1 X101.708 Y104.537
G1 X114.619 Y117.448 E14.45723
G1 X115.185 Y117.448
G1 X101.951 Y104.214 E15.07964
G1 X102.193 Y103.89
G1 X115.751 Y117.448 E15.71729
G1 X116.316 Y117.448
G1 X102.435 Y103.566 E16.37016
G1 X102.722 Y103.287
G1 X116.688 Y117.254 E17.02702
G1 X116.983 Y116.983
G1 X103.016 Y103.016 E17.68391
G1 X103.31 Y102.744
G1 X117.277 Y116.711 E18.3408
G1 X117.564 Y116.432
G1 X103.682 Y102.55 E18.99369
G1 X104.248 Y102.55
G1 X117.806 Y116.109 E19.63137
G1 X118.047 Y115.785
G1 X104.813 Y102.55 E20.2538
G1 X105.379 Y102.55
G1 X118.29 Y115.462 E20.86105
G1 X118.532 Y115.138
G1 X105.945 Y102.55 E21.45306
G1 X106.51 Y102.55
G1 X118.733 Y114.773 E22.02792
G1 X118.919 Y114.393
G1 X107.076 Y102.55 E22.58492
G1 X107.642 Y102.55
G1 X119.104 Y114.013 E23.12402
G1 X119.29 Y113.633
G1 X108.207 Y102.55 E23.64526
G1 X108.773 Y102.55
G1 X119.441 Y113.219 E24.14702
G1 X119.565 Y112.777
G1 X109.339 Y102.55 E24.62799
G1 X109.904 Y102.55
G1 X119.689 Y112.335 E25.08819
G1 X119.813 Y111.893
G1 X110.47 Y102.55 E25.5276
G1 X111.036 Y102.55
G1 X119.882 Y111.397 E25.94367
G1 X119.93 Y110.88
G1 X111.601 Y102.55 E26.33542
G1 X112.167 Y102.55
G1 X119.979 Y110.362 E26.70283
G1 X119.997 Y109.815
G1 X112.733 Y102.55 E27.04449
G1 X113.299 Y102.55
G1 X119.939 Y109.191 E27.3568
G1 X119.88 Y108.567
G1 X113.864 Y102.55 E27.63976
G1 X114.43 Y102.55
G1 X119.748 Y107.869 E27.8899
G1 X119.525 Y107.08
G1 X114.996 Y102.55 E28.10293
G1 X115.561 Y102.55
G1 X119.206 Y106.196 E28.27438
G0 F4800 X119.638 Y105.985
G0 X119.095 Y104.88
G0 X118.666 Y105.09
G1 F1800 X116.127 Y102.55 E28.39382
;MESH:NONMESH
G0 F600 X116.127 Y102.55 Z0.4
G0 F4800 X116.127 Y102.071
G0 X103.357 Y102.134
G0 X102.164 Y103.233
G0 X101.049 Y104.722
G0 X100.236 Y106.379
G0 X99.831 Y107.812
G0 X99.404 Y110.006
;TIME_ELAPSED:36.386250

;LAYER:1
M106 S127.5
M204 S1250
;TYPE:WALL-INNER
;MESH:0_0
G1 F3600 X99.577 Y111.875 E28.45624
G1 X100.086 Y113.679 E28.51858
G1 X100.912 Y115.362 E28.58092
G1 X102.044 Y116.876 E28.64379
G1 X103.293 Y118.029 E28.70032
G1 X116.707 Y118.029 E29.14642
G1 X117.956 Y116.876 E29.20295
G1 X119.088 Y115.362 E29.26582
G1 X119.914 Y113.679 E29.32817
G1 X120.423 Y111.875 E29.3905
G1 X120.528 Y110.734 E29.42861
G1 X120.596 Y109.994 E29.45332
G1 X120.423 Y108.12 E29.51591
G1 X119.913 Y106.319 E29.57816
G1 X119.088 Y104.638 E29.64043
G1 X117.956 Y103.124 E29.7033
G1 X116.707 Y101.971 E29.75983
G1 X103.293 Y101.971 E30.20593
G1 X102.044 Y103.124 E30.26246
G1 X100.912 Y104.638 E30.32533
G1 X100.086 Y106.321 E30.38767
G1 X99.577 Y108.12 E30.44985
G1 X99.404 Y110.006 E30.51283
M204 S1500
G0 F6900 X99.002 Y110.006
M204 S750
;TYPE:WALL-OUTER
G1 F2700 X99.182 Y111.948 E30.5764
G1 X99.711 Y113.822 E30.63986
G1 X100.569 Y115.572 E30.70338
G1 X101.745 Y117.145 E30.76739
G1 X103.136 Y118.429 E30.82909
G1 X103.536 Y118.429 E30.84212
G1 X116.463 Y118.429 E31.26343
G1 X116.864 Y118.429 E31.2765
G1 X118.255 Y117.145 E31.33819
G1 X119.431 Y115.572 E31.4022
G1 X120.289 Y113.822 E31.46572
G1 X120.818 Y111.948 E31.52918
G1 X120.926 Y110.771 E31.56771
G1 X120.998 Y109.994 E31.59314
G1 X120.818 Y108.047 E31.65686
G1 X120.288 Y106.175 E31.72027
G1 X119.431 Y104.428 E31.78369
G1 X118.255 Y102.855 E31.8477
G1 X116.864 Y101.571 E31.90939
G1 X116.463 Y101.571 E31.92246
G1 X103.536 Y101.571 E32.34377
G1 X103.136 Y101.571 E32.35681
G1 X101.745 Y102.855 E32.4185
G1 X100.569 Y104.428 E32.48251
G1 X99.711 Y106.178 E32.54603
G1 X99.182 Y108.047 E32.60934
G1 X99.002 Y110.006 E32.67345
M204 S1500
G0 F6900 X99.02 Y110.205
G0 X99.785 Y110.01
;TYPE:SKIN
G1 F2400 X99.953 Y111.808 E32.73351
G1 X100.441 Y113.537 E32.79325
G1 X101.23 Y115.155 E32.85312
G1 X102.323 Y116.616 E32.9138
G1 X103.441 Y117.649 E32.96442
G1 X116.559 Y117.649 E33.40068
G1 X117.677 Y116.616 E33.4513
G1 X118.77 Y115.155 E33.51198
G1 X119.559 Y113.537 E33.57184
G1 X120.047 Y111.805 E33.63168
G1 X120.149 Y110.699 E33.66862
G1 X120.215 Y109.99 E33.6923
G1 X120.047 Y108.185 E33.75259
G1 X119.558 Y106.46 E33.81222
G1 X118.77 Y104.845 E33.87198
G1 X117.677 Y103.384 E33.93266
G1 X116.559 Y102.351 E33.98328
G1 X103.441 Y102.351 E34.41953
G1 X102.323 Y103.384 E34.47016
G1 X101.23 Y104.845 E34.53084
G1 X100.441 Y106.463 E34.5907
G1 X99.953 Y108.185 E34.65022
G1 X99.785 Y110.01 E34.71117
G0 F6900 X99.507 Y109.984
G0 X99.736 Y108.15
G0 X100.236 Y106.379
G0 X100.893 Y105.038
G0 X101.481 Y104.045
G0 X102.023 Y104.451
G1 F2400 X103.724 Y102.75 E34.79117
G1 X103.596 Y102.751 E34.79543
G1 X102.621 Y103.651 E34.83956
G1 X101.575 Y105.051 E34.89768
G1 X101.179 Y105.861 E34.92766
G1 X104.29 Y102.75 E35.07398
G1 X104.856 Y102.75 E35.0928
G1 X100.741 Y106.865 E35.28633
G1 X100.518 Y107.653 E35.31357
G1 X105.421 Y102.75 E35.54416
G1 X105.987 Y102.75 E35.56299
G1 X100.334 Y108.403 E35.82885
G1 X100.277 Y109.025 E35.84963
G1 X106.553 Y102.75 E36.14477
G1 X107.118 Y102.75 E36.16356
G1 X100.22 Y109.648 E36.48799
G1 X100.187 Y110.008 E36.50001
G1 X100.207 Y110.227 E36.50732
G1 X107.684 Y102.75 E36.85898
G1 X108.25 Y102.75 E36.8778
G1 X100.256 Y110.744 E37.25377
G1 X100.304 Y111.261 E37.27103
G1 X108.815 Y102.75 E37.67132
G1 X109.381 Y102.75 E37.69014
G1 X100.36 Y111.771 E38.11441
G1 X100.484 Y112.213 E38.12968
G1 X109.947 Y102.75 E38.57474
G1 X110.513 Y102.75 E38.59356
G1 X100.608 Y112.654 E39.05938
G1 X100.733 Y113.096 E39.07466
G1 X111.078 Y102.75 E39.56122
G1 X111.644 Y102.75 E39.58005
G1 X100.877 Y113.517 E40.08643
G1 X101.062 Y113.897 E40.10049
G1 X112.21 Y102.75 E40.62477
G1 X112.775 Y102.75 E40.64356
G1 X101.248 Y114.277 E41.18569
G1 X101.433 Y114.658 E41.19978
G1 X113.341 Y102.75 E41.75983
G1 X113.907 Y102.75 E41.77865
G1 X101.633 Y115.024 E42.35592
G1 X101.874 Y115.348 E42.36935
G1 X114.472 Y102.75 E42.96185
G1 X115.038 Y102.75 E42.98067
G1 X102.116 Y115.672 E43.58841
G1 X102.359 Y115.995 E43.60185
G1 X115.604 Y102.75 E44.22478
G1 X116.169 Y102.75 E44.24357
G1 X102.597 Y116.323 E44.88191
G1 X102.89 Y116.595 E44.8952
G1 X116.575 Y102.91 E45.53883
G1 X116.869 Y103.182 E45.55215
G1 X103.184 Y116.867 E46.19577
G1 X103.478 Y117.138 E46.20907
G1 X117.163 Y103.453 E46.8527
G1 X117.456 Y103.726 E46.86601
G1 X103.934 Y117.248 E47.50197
G1 X104.499 Y117.248 E47.52076
G1 X117.685 Y104.063 E48.1409
G1 X117.927 Y104.387 E48.15435
G1 X105.065 Y117.248 E48.75924
G1 X105.631 Y117.248 E48.77806
G1 X118.168 Y104.711 E49.3677
G1 X118.411 Y105.034 E49.38114
G1 X106.196 Y117.248 E49.9556
G1 X106.762 Y117.248 E49.97443
G1 X118.599 Y105.411 E50.53114
G1 X118.785 Y105.791 E50.54521
G1 X107.328 Y117.248 E51.08405
G1 X107.893 Y117.248 E51.10284
G1 X118.97 Y106.172 E51.62378
G1 X119.156 Y106.551 E51.63782
G1 X108.459 Y117.248 E52.14092
G1 X109.025 Y117.248 E52.15974
G1 X119.29 Y106.983 E52.64252
G1 X119.414 Y107.425 E52.65778
G1 X109.59 Y117.248 E53.1198
G1 X110.156 Y117.248 E53.13862
G1 X119.539 Y107.866 E53.57989
G1 X119.665 Y108.306 E53.59511
G1 X110.722 Y117.248 E54.01569
G1 X111.288 Y117.248 E54.03451
G1 X119.703 Y108.832 E54.43031
G1 X119.752 Y109.35 E54.44761
G1 X111.853 Y117.248 E54.81909
G1 X112.419 Y117.248 E54.83791
G1 X119.826 Y109.842 E55.18625
G1 X119.767 Y110.466 E55.20709
G1 X112.985 Y117.248 E55.52606
G1 X113.55 Y117.248 E55.54485
G1 X119.71 Y111.089 E55.83454
G1 X119.653 Y111.712 E55.85535
G1 X114.116 Y117.248 E56.11574
G1 X114.682 Y117.248 E56.13456
G1 X119.435 Y112.495 E56.3581
G1 X119.215 Y113.281 E56.38524
G1 X115.247 Y117.248 E56.57184
G1 X115.813 Y117.248 E56.59066
G1 X118.72 Y114.341 E56.72738
G1 X118.424 Y114.947 E56.74981
G1 X117.377 Y116.348 E56.80798
G1 X116.402 Y117.248 E56.85211
G1 X116.379 Y117.248 E56.85287
G1 X117.666 Y115.961 E56.9134
;MESH:NONMESH
G0 F600 X117.666 Y115.961 Z0.6
G0 F6900 X117.869 Y116.822
G0 X116.643 Y117.866
G0 X103.357 Y117.866
G0 X102.164 Y116.767
G0 X101.049 Y115.278
G0 X100.236 Y113.621
G0 X99.831 Y112.183
G0 X99.404 Y110.006
;TIME_ELAPSED:59.787870

;LAYER:2
M106 S255
M204 S2000
;TYPE:WALL-INNER
;MESH:0_0
G1 F5400 X99.577 Y111.875 E56.97582
G1 X100.086 Y113.679 E57.03816
