;FLAVOR:Marlin
;TIME:1411.95
;Filament used:0.823126m
;Layer height: 0.2
;MINX:99.002
;MINY:101.571
;MINZ:0.2
;MAXX:120.998
;MAXY:118.429
;MAXZ:28.2
;OuterWall Time:1104.65
;InnerWall Time:27.3196
;Skin Time:148.243
;Support Time:0
;SkirtBrim Time:0
;Infill Time:9.20594
;InfillSupport Time:0
;Combing Time:33.027
;Retraction Time:89.4974
;PrimeTower Time:0

;
;
;
;
;
;
;
;
;
;
;
;
;
;
;
;
;
;
;
;
;
;
;
;
;
;
;
;
;
;
;
;
;
;
;
;
;
;
;
;
;
;
;
;
;
;
;
;
;

;Creality Print GCode Generated by CXEngine
;CRSLICE_GIT_HASH:87dd5d0
;Creality Print Version : V4.3.6.6231
;CXEngine Release Time:2023-07-21 16:32:51
;Gcode Generated Time:2024-07-08 19:07:28
;----------Machine Config--------------
;Machine Name:Ender-3 V3 SE
;Machine Height:250
;Machine Width:220
;Machine Depth:220
;Material Type:PLA
;Material Name:CR-PLA_1.75
;Number of Extruders:1
;ExtruderParams[0] Nozzle Diameter:1000
;----------Profile Config---------------
;Layer Height:0.2
;Wall Thickness:0.8
;Top/Bottom Thickness:0.8
;Out Wall Line Width:0.4
;Inner Wall Line Width:0.4
;Inital Layer Height:200
;Wall Line Count:2
;Infill Line Distance:8
;Infill Pattern:grid
;Infill Sparse Density:10
;Infill Wipe Distance:0
;Print Temperature:205
;Bed Temperature:60
;Support Enable:false
;Support Density:15
;Support Angle:60
;Adhesion Type:autobrim
;machine is belt:false
;machine belt offset:10
;machine belt offset Y:0
;Raft Base Line Spacing:1.6
;Wait Heatup Sync:true
;Enable Ironing:false
;Material Type:PLA
;Max volumetric speed:20
;----------Shell Config----------------
;Outer Wall Wipe Distance:200
;Outer Inset First:false
;Infill Before Walls:false
;Infill Overlap:0.04
;Fill Gaps Between Walls:everywhere
;Minimum Infill Area:15
;Top Surface Skin Layer:0
;Top Layers:4
;Z Seam Alignment:sharpest_corner
;Seam Corner Preference:z_seam_corner_inner
;Z Seam X:110
;Z Seam Y:220
;Horizontal Expansion:0
;Top/Bottom Pattern:zigzag
;Ironing Pattern:zigzag
;Vase Model:false
;----------Support Config----------------
;Support Type:everywhere
;Support Pattern:zigzag
;Support Infill Layer Thickness:0.15
;Minimum Support Area:5
;Enable Support Roof:true
;Support Roof Thickness:0.8
;Support Roof Pattern:lines
;Connect Support Lines:0
;Connect Support ZigZags:1
;Minimum Support X/Y Distance:0.2
;Support Line Distance:2.67
; ---------PrintSpeed & Travel----------
;Enable Print Cool:true
;Avoid Printed Parts Traveling:true
;Enable Retraction:true
;Retraction Distance:0.8
;Retraction Speed:40
;Retraction Prime Speed:40
;Maximum Retraction Count:100
;Minimum Extrusion Distance Window:0.8
;Z Hop When Retracted:false
;Z Hop Height:0.2
;Retract Before Outer Wall:true

;Outer Wall Speed:60
;Inner Wall Speed:90
;Infill Speed:180
;Top/Bottom Speed:50
;Travel Speed:150
;Initial Layer Speed:30
;Skirt/Brim Speed:25
;Prime Tower Speed:60
;Outer Wall Acceleration:1000
;Inner Wall Acceleration:2000
;Infill Acceleration:2500
;Top/Bottom Acceleration:2500
;Travel Acceleration:2500
;Initial Layer Print Acceleration:500
;Initial Layer Travel Acceleration:500
;Skirt/Brim Acceleration:500
;Combing Mode:noskin
; --------SpecialModel&Mesh Fixes--------
;Union Overlapping Volum:true
;Remove All Holes:false
;Maximum Travel Resolution:0.25
;Maximum Deviation:0.05
;Maximum Model Angle:0.872767
;IS Mold Print:false
;Make Overhang Printable:false
;Enable Coasting:false
;Coasting Volumes:0.064
;Coasting Speed:0.9
;Raft AirGap:0.25
;Layer0 ZOverLap:0.13
;---------------------End of Head--------------------------
M140 S60
M105
M190 S60
M104 S205
M82 ;absolute extrusion mode
M220 S100 ;Reset Feedrate
M221 S100 ;Reset Flowrate

G28 ;Home

G92 E0 ;Reset Extruder
G1 Z2.0 F3000 ;Move Z Axis up
G1 X10.1 Y20 Z0.28 F5000.0 ;Move to start position
M109 S205.000000
G1 X10.1 Y145.0 Z0.28 F1500.0 E15 ;Draw the first line
G1 X10.4 Y145.0 Z0.28 F5000.0 ;Move to side a little
G1 X10.4 Y20 Z0.28 F1500.0 E30 ;Draw the second line
G92 E0  ;Reset Extruder
G1 E-1.0000 F1800 ;Retract a bit
G1 Z2.0 F3000 ;Move Z Axis up
G1 E0.0000 F1800 

G92 E0
G92 E0
G1 F2400 E-0.8
;LAYER_COUNT:141

;LAYER:0
M106 S0
M106 P2 S0
M204 S500
;MESH:0_0
G0 F4800 X99.404 Y110.006 Z0.2
;TYPE:WALL-INNER
G1 F2400 E0
G1 F1800 X99.577 Y111.875 E0.06242
G1 X100.086 Y113.679 E0.12476
G1 X100.912 Y115.362 E0.18711
G1 X102.044 Y116.876 E0.24997
G1 X103.293 Y118.029 E0.3065
G1 X116.707 Y118.029 E0.7526
G1 X117.956 Y116.876 E0.80913
G1 X119.088 Y115.362 E0.872
G1 X119.914 Y113.679 E0.93435
G1 X120.425 Y111.866 E0.99699
G1 X120.596 Y109.994 E1.05951
G1 X120.423 Y108.12 E1.12209
G1 X119.913 Y106.319 E1.18434
G1 X119.088 Y104.638 E1.24662
G1 X117.956 Y103.124 E1.30948
G1 X116.707 Y101.971 E1.36601
G1 X106.663 Y101.971 E1.70004
G1 X103.293 Y101.971 E1.81211
G1 X102.044 Y103.124 E1.86864
G1 X100.912 Y104.638 E1.93151
G1 X100.086 Y106.321 E1.99386
G1 X99.575 Y108.129 E2.05634
G1 X99.404 Y110.006 E2.11902
G0 F4800 X99.002 Y110.006
;TYPE:WALL-OUTER
G1 F1800 X99.182 Y111.948 E2.18258
G1 X99.711 Y113.822 E2.24605
G1 X100.569 Y115.572 E2.30957
G1 X101.745 Y117.145 E2.37358
G1 X103.136 Y118.429 E2.43527
G1 X116.864 Y118.429 E2.88268
G1 X118.255 Y117.145 E2.94438
G1 X119.431 Y115.572 E3.00839
G1 X120.289 Y113.822 E3.07191
G1 X120.82 Y111.939 E3.13567
G1 X120.998 Y109.994 E3.19933
G1 X120.818 Y108.047 E3.26305
G1 X120.288 Y106.175 E3.32646
G1 X119.431 Y104.428 E3.38988
G1 X118.255 Y102.855 E3.45389
G1 X116.864 Y101.571 E3.51558
G1 X106.663 Y101.571 E3.84805
G1 X103.136 Y101.571 E3.96299
G1 X101.745 Y102.855 E4.02469
G1 X100.569 Y104.428 E4.0887
G1 X99.711 Y106.178 E4.15222
G1 X99.18 Y108.056 E4.21583
G1 X99.002 Y110.006 E4.27964
G0 F4800 X99.02 Y110.205
;;retract;;
G1 F2400 E3.71964
G1 X99.182 Y111.948 E3.52014
G1 X99.249 Y112.188 E3.49164
G1 F2400 E3.47964
G0 F4800 X99.319 Y110.178
G0 X99.687 Y110.894
G0 X108.054 Y110.138
G0 X108.229 Y110.039
;TYPE:WALL-INNER
G1 F2400 E4.27964
G1 F1800 X108.232 Y109.989 E4.28131
G1 X108.233 Y109.974 E4.28181
G1 X108.266 Y109.695 E4.29115
G1 X108.27 Y109.666 E4.29212
G1 X108.285 Y109.602 E4.29431
G1 X108.305 Y109.542 E4.29641
G1 X108.323 Y109.501 E4.2979
G1 X108.33 Y109.487 E4.29842
G1 X108.589 Y108.993 E4.31697
G1 X108.635 Y108.919 E4.31987
G1 X108.699 Y108.845 E4.32312
G1 X108.78 Y108.778 E4.32662
G1 X109.249 Y108.455 E4.34556
G1 X109.374 Y108.389 E4.35026
G1 X109.485 Y108.358 E4.35409
G1 X109.517 Y108.353 E4.35517
G1 X110.069 Y108.286 E4.37366
G1 X110.141 Y108.282 E4.37606
G1 X110.214 Y108.286 E4.37849
G1 X110.245 Y108.291 E4.37954
G1 X110.353 Y108.321 E4.38326
G1 X110.876 Y108.519 E4.40186
G1 X110.968 Y108.562 E4.40524
G1 X111.047 Y108.618 E4.40846
G1 X111.113 Y108.681 E4.41149
G1 X111.488 Y109.103 E4.43027
G1 X111.504 Y109.123 E4.43112
G1 X111.52 Y109.143 E4.43197
G1 X111.554 Y109.194 E4.43401
G1 X111.578 Y109.238 E4.43568
G1 X111.608 Y109.31 E4.43827
G1 X111.616 Y109.339 E4.43927
G1 X111.622 Y109.36 E4.44
G1 X111.753 Y109.896 E4.45835
G1 X111.755 Y109.906 E4.45869
G1 X111.767 Y109.983 E4.46128
G1 X111.77 Y110.033 E4.46294
G1 X111.767 Y110.093 E4.46494
G1 X111.757 Y110.161 E4.46723
G1 X111.754 Y110.177 E4.46777
G1 X111.623 Y110.726 E4.48654
G1 X111.617 Y110.75 E4.48736
G1 X111.611 Y110.769 E4.48802
G1 X111.578 Y110.851 E4.49096
G1 X111.559 Y110.887 E4.49232
G1 X111.52 Y110.946 E4.49467
G1 X111.508 Y110.961 E4.49531
G1 X111.488 Y110.986 E4.49637
G1 X111.113 Y111.408 E4.51515
G1 X111.047 Y111.471 E4.51818
G1 X110.968 Y111.527 E4.5214
G1 X110.876 Y111.57 E4.52478
G1 X110.353 Y111.768 E4.54338
G1 X110.245 Y111.798 E4.54711
G1 X110.214 Y111.803 E4.54815
G1 X110.141 Y111.807 E4.55058
G1 X110.069 Y111.803 E4.55298
G1 X109.517 Y111.736 E4.57147
G1 X109.373 Y111.7 E4.57641
G1 X109.248 Y111.634 E4.58111
G1 X108.777 Y111.309 E4.60014
G1 X108.694 Y111.24 E4.60373
G1 X108.629 Y111.162 E4.60711
G1 X108.587 Y111.095 E4.60974
G1 X108.333 Y110.613 E4.62785
G1 X108.325 Y110.597 E4.62845
G1 X108.303 Y110.546 E4.6303
G1 X108.286 Y110.496 E4.63205
G1 X108.271 Y110.421 E4.6346
G1 X108.268 Y110.405 E4.63514
G1 X108.233 Y110.116 E4.64482
G1 X108.232 Y110.1 E4.64535
G1 X108.229 Y110.039 E4.64738
G0 F4800 X108.629 Y110.042
;TYPE:WALL-OUTER
G1 F1800 X108.63 Y110.026 E4.64791
G1 X108.63 Y110.021 E4.64807
G1 X108.663 Y109.742 E4.65722
G1 X108.665 Y109.732 E4.65756
G1 X108.67 Y109.711 E4.65826
G1 X108.676 Y109.691 E4.65894
G1 X108.682 Y109.677 E4.65944
G1 X108.685 Y109.672 E4.65963
G1 X108.943 Y109.179 E4.67776
G1 X108.958 Y109.154 E4.67871
G1 X108.98 Y109.13 E4.67977
G1 X109.007 Y109.107 E4.68093
G1 X109.476 Y108.784 E4.69949
G1 X109.517 Y108.762 E4.70101
G1 X109.554 Y108.752 E4.70225
G1 X109.565 Y108.75 E4.70262
G1 X110.117 Y108.683 E4.72074
G1 X110.141 Y108.682 E4.72152
G1 X110.165 Y108.683 E4.72231
G1 X110.176 Y108.685 E4.72267
G1 X110.212 Y108.695 E4.72389
G1 X110.735 Y108.893 E4.74211
G1 X110.765 Y108.907 E4.74319
G1 X110.792 Y108.926 E4.74427
G1 X110.814 Y108.947 E4.74526
G1 X111.189 Y109.369 E4.76366
G1 X111.194 Y109.376 E4.76394
G1 X111.199 Y109.382 E4.7642
G1 X111.211 Y109.399 E4.76487
G1 X111.219 Y109.414 E4.76543
G1 X111.229 Y109.438 E4.76627
G1 X111.231 Y109.448 E4.76661
G1 X111.233 Y109.455 E4.76684
G1 X111.364 Y109.991 E4.78483
G1 X111.365 Y109.994 E4.78493
G1 X111.369 Y110.02 E4.78579
G1 X111.37 Y110.036 E4.78631
G1 X111.369 Y110.056 E4.78696
G1 X111.366 Y110.079 E4.78772
G1 X111.365 Y110.084 E4.78788
G1 X111.234 Y110.633 E4.80628
G1 X111.232 Y110.641 E4.80655
G1 X111.23 Y110.648 E4.80679
G1 X111.219 Y110.675 E4.80774
G1 X111.212 Y110.687 E4.80819
G1 X111.199 Y110.707 E4.80897
G1 X111.195 Y110.712 E4.80917
G1 X111.189 Y110.72 E4.8095
G1 X110.814 Y111.142 E4.8279
G1 X110.792 Y111.163 E4.82889
G1 X110.765 Y111.182 E4.82997
G1 X110.735 Y111.196 E4.83105
G1 X110.212 Y111.394 E4.84927
G1 X110.176 Y111.404 E4.85049
G1 X110.165 Y111.406 E4.85085
G1 X110.141 Y111.407 E4.85164
G1 X110.117 Y111.406 E4.85242
G1 X109.565 Y111.339 E4.87054
G1 X109.517 Y111.327 E4.87215
G1 X109.475 Y111.305 E4.8737
G1 X109.004 Y110.98 E4.89235
G1 X108.977 Y110.957 E4.89351
G1 X108.955 Y110.931 E4.89462
G1 X108.941 Y110.908 E4.89549
G1 X108.687 Y110.426 E4.91325
G1 X108.684 Y110.421 E4.91344
G1 X108.677 Y110.404 E4.91404
G1 X108.671 Y110.387 E4.91463
G1 X108.666 Y110.362 E4.91546
G1 X108.665 Y110.357 E4.91562
G1 X108.63 Y110.068 E4.92511
G1 X108.63 Y110.063 E4.92527
G1 X108.629 Y110.042 E4.92596
G0 F4800 X108.63 Y110.026
G0 X108.63 Y110.021
G0 X108.651 Y109.843
G0 X108.354 Y109.807
G0 X108.451 Y110.488
G0 X108.769 Y111.033
G0 X109.339 Y111.795
G0 X109.202 Y112.05
;TYPE:SKIN
G1 F1800 X109.134 Y112.019 E4.92845
G1 X108.472 Y111.558 E4.95527
G1 X108.445 Y111.536 E4.95643
G1 X108.425 Y111.512 E4.95747
G1 X108.265 Y111.293 E4.96649
G1 X108.249 Y111.268 E4.96748
G1 X107.93 Y110.662 E4.99025
G1 X107.927 Y110.657 E4.99045
G1 X107.921 Y110.642 E4.99098
G1 X107.914 Y110.623 E4.99166
G1 X107.908 Y110.593 E4.99267
G1 X107.845 Y110.069 E5.01023
G1 X107.845 Y110.064 E5.01039
G1 X107.844 Y110.043 E5.01109
G1 X107.845 Y110.027 E5.01162
G1 X107.845 Y110.021 E5.01182
G1 X107.906 Y109.507 E5.02904
G1 X107.907 Y109.503 E5.02917
G1 X107.913 Y109.477 E5.03006
G1 X107.92 Y109.454 E5.03086
G1 X107.925 Y109.443 E5.03126
G1 X107.928 Y109.439 E5.03143
G1 X108.25 Y108.82 E5.05463
G1 X108.266 Y108.794 E5.05565
G1 X108.432 Y108.57 E5.06492
G1 X108.453 Y108.546 E5.06598
G1 X108.479 Y108.524 E5.06711
G1 X109.031 Y108.143 E5.08942
G1 X109.068 Y108.123 E5.09082
G1 X109.372 Y107.996 E5.10178
G1 X109.414 Y107.984 E5.10323
G1 X109.426 Y107.982 E5.10363
G1 X110.227 Y107.891 E5.13044
G1 X110.25 Y107.89 E5.13121
G1 X110.275 Y107.892 E5.13204
G1 X110.285 Y107.893 E5.13238
G1 X110.321 Y107.903 E5.13362
G1 X111.193 Y108.234 E5.16464
G1 X111.237 Y108.257 E5.16629
G1 X111.272 Y108.288 E5.16784
G1 X111.795 Y108.877 E5.19404
G1 X111.8 Y108.884 E5.19432
G1 X111.805 Y108.89 E5.19458
G1 X111.819 Y108.912 E5.19545
G1 X111.953 Y109.153 E5.20462
G1 X111.958 Y109.162 E5.20496
G1 X111.968 Y109.186 E5.20583
G1 X111.97 Y109.196 E5.20617
G1 X111.972 Y109.202 E5.20638
G1 X112.167 Y109.989 E5.23334
G1 X112.172 Y110.018 E5.23432
G1 X112.173 Y110.035 E5.23489
G1 X112.172 Y110.055 E5.23555
G1 X112.167 Y110.084 E5.23653
G1 X111.977 Y110.868 E5.26336
G1 X111.976 Y110.875 E5.2636
G1 X111.974 Y110.882 E5.26384
G1 X111.963 Y110.909 E5.26481
G1 X111.962 Y110.911 E5.26488
G1 X111.845 Y111.143 E5.27352
G1 X111.841 Y111.149 E5.27376
G1 X111.826 Y111.173 E5.2747
G1 X111.822 Y111.179 E5.27494
G1 X111.816 Y111.185 E5.27523
G1 X111.272 Y111.801 E5.30256
G1 X111.237 Y111.832 E5.30411
G1 X111.193 Y111.856 E5.30578
G1 X110.321 Y112.186 E5.33678
G1 X110.285 Y112.196 E5.33803
G1 X110.275 Y112.197 E5.33836
G1 X110.25 Y112.199 E5.3392
G1 X110.228 Y112.198 E5.33993
G1 X109.473 Y112.113 E5.36519
G1 X109.449 Y112.109 E5.366
G1 X109.202 Y112.05 E5.37445
;;retract;;
G1 F2400 E4.81445
G1 X109.134 Y112.019 E4.80601
G1 X108.472 Y111.558 E4.71413
G1 X108.445 Y111.536 E4.71025
G1 X108.425 Y111.512 E4.70672
G1 X108.265 Y111.293 E4.67583
G1 X108.249 Y111.268 E4.67252
G1 X107.93 Y110.662 E4.59454
G1 X107.927 Y110.657 E4.59397
G1 X107.921 Y110.642 E4.59215
G1 X107.914 Y110.623 E4.58987
G1 X107.908 Y110.593 E4.58645
G1 X107.908 Y110.593
G1 F2400 E4.57445
G0 F4800 X109.339 Y111.795
G0 X108.427 Y111.179
G0 X99.687 Y110.894
G0 X99.785 Y110.009
G1 F2400 E5.37445
G1 F1800 X99.953 Y111.808 E5.43454
G1 X100.441 Y113.537 E5.49428
G1 X101.23 Y115.155 E5.55415
G1 X102.323 Y116.616 E5.61483
G1 X103.441 Y117.649 E5.66545
G1 X116.559 Y117.649 E6.10171
G1 X117.677 Y116.616 E6.15233
G1 X118.77 Y115.156 E6.21298
G1 X119.559 Y113.537 E6.27288
G1 X120.049 Y111.798 E6.33296
G1 X120.181 Y110.361 E6.38095
G1 X120.215 Y109.99 E6.39334
G1 X120.047 Y108.185 E6.45363
G1 X119.558 Y106.46 E6.51325
G1 X118.77 Y104.845 E6.57302
G1 X117.677 Y103.384 E6.6337
G1 X116.559 Y102.351 E6.68432
G1 X103.441 Y102.351 E7.12057
G1 X102.323 Y103.384 E7.17119
G1 X101.23 Y104.845 E7.23187
G1 X100.441 Y106.463 E7.29174
G1 X99.951 Y108.193 E7.35154
G1 X99.785 Y110.009 E7.41218
G0 F4800 X99.549 Y109.523
G0 X99.736 Y111.845
G0 X100.236 Y113.621
G0 X101.049 Y115.278
G0 X102.052 Y116.618
G0 X103.275 Y117.875
G0 X103.871 Y117.448
G1 F1800 X101.332 Y114.909 E7.53159
G0 F4800 X100.903 Y115.118
G0 X100.363 Y114.015
G0 X100.793 Y113.804
G1 F1800 X104.437 Y117.448 E7.70298
G1 X105.003 Y117.448
G1 X100.474 Y112.919 E7.91598
G1 X100.252 Y112.131
G1 X105.568 Y117.448 E8.16602
G1 X106.134 Y117.448
G1 X100.119 Y111.432 E8.44894
G1 X100.06 Y110.808
G1 X106.7 Y117.448 E8.76123
G1 X107.265 Y117.448
G1 X100.001 Y110.184 E9.10287
G1 X100.019 Y109.636
G1 X107.831 Y117.448 E9.47028
G1 X108.397 Y117.448
G1 X100.066 Y109.117 E9.8621
G1 X100.114 Y108.599
G1 X108.963 Y117.448 E10.27828
G1 X109.528 Y117.448
G1 X100.183 Y108.103 E10.71779
G1 X100.308 Y107.661
G1 X110.094 Y117.448 E11.17806
G1 X110.66 Y117.448
G1 X100.433 Y107.221 E11.65905
G1 X100.557 Y106.78
G1 X111.225 Y117.448 E12.16078
G1 X111.791 Y117.448
G1 X100.708 Y106.365 E12.68203
G1 X100.894 Y105.986
G1 X112.357 Y117.448 E13.22113
G1 X112.922 Y117.448
G1 X101.08 Y105.605 E13.7781
G1 X101.266 Y105.225
G1 X113.488 Y117.448 E14.35294
G1 X114.054 Y117.448
G1 X101.466 Y104.861 E14.94495
G1 X101.708 Y104.537
G1 X107.704 Y110.532 E15.22692
G1 X107.659 Y109.921
G1 X101.951 Y104.214 E15.49536
G1 X102.193 Y103.89
G1 X107.72 Y109.417 E15.7553
G1 X107.909 Y109.04
G1 X102.435 Y103.566 E16.01275
G1 X102.722 Y103.287
G1 X108.11 Y108.675 E16.26615
G1 X108.365 Y108.365
G1 X103.016 Y103.016 E16.51773
G1 X103.31 Y102.744
G1 X108.697 Y108.132 E16.77111
G1 X109.046 Y107.915
