;FLAVOR:Marlin
;TIME:3211.23
;Filament used:4.95985m
;Layer height: 0.2
;MINX:80.221
;MINY:39.271
;MINZ:0.2
;MAXX:139.779
;MAXY:180.729
;MAXZ:10.2
;OuterWall Time:435.023
;InnerWall Time:257.274
;Skin Time:2089.85
;Support Time:0
;SkirtBrim Time:0
;Infill Time:198.365
;InfillSupport Time:0
;Combing Time:115.208
;Retraction Time:115.509
;PrimeTower Time:0

;
;
;
;
;
;
;
;
;
;
;
;
;
;
;
;
;
;
;
;
;
;
;
;
;
;
;
;
;
;
;
;
;
;
;
;
;
;
;
;
;
;
;
;
;
;
;
;
;

;Creality Print GCode Generated by CXEngine
;CRSLICE_GIT_HASH:87dd5d0
;Creality Print Version : V4.3.6.6231
;CXEngine Release Time:2023-07-21 16:32:51
;Gcode Generated Time:2024-08-01 19:45:00
;----------Machine Config--------------
;Machine Name:Ender-3 V3 SE
;Machine Height:250
;Machine Width:220
;Machine Depth:220
;Material Type:PLA
;Material Name:CR-PLA_1.75
;Number of Extruders:1
;ExtruderParams[0] Nozzle Diameter:1000
;----------Profile Config---------------
;Layer Height:0.2
;Wall Thickness:0.8
;Top/Bottom Thickness:0.8
;Out Wall Line Width:0.4
;Inner Wall Line Width:0.4
;Inital Layer Height:200
;Wall Line Count:2
;Infill Line Distance:8
;Infill Pattern:grid
;Infill Sparse Density:10
;Infill Wipe Distance:0
;Print Temperature:205
;Bed Temperature:60
;Support Enable:false
;Support Density:15
;Support Angle:60
;Adhesion Type:autobrim
;machine is belt:false
;machine belt offset:10
;machine belt offset Y:0
;Raft Base Line Spacing:1.6
;Wait Heatup Sync:true
;Enable Ironing:false
;Material Type:PLA
;Max volumetric speed:20
;----------Shell Config----------------
;Outer Wall Wipe Distance:200
;Outer Inset First:false
;Infill Before Walls:false
;Infill Overlap:0.04
;Fill Gaps Between Walls:everywhere
;Minimum Infill Area:15
;Top Surface Skin Layer:0
;Top Layers:4
;Z Seam Alignment:sharpest_corner
;Seam Corner Preference:z_seam_corner_inner
;Z Seam X:110
;Z Seam Y:220
;Horizontal Expansion:0
;Top/Bottom Pattern:zigzag
;Ironing Pattern:zigzag
;Vase Model:false
;----------Support Config----------------
;Support Type:everywhere
;Support Pattern:zigzag
;Support Infill Layer Thickness:0.15
;Minimum Support Area:5
;Enable Support Roof:true
;Support Roof Thickness:0.8
;Support Roof Pattern:lines
;Connect Support Lines:0
;Connect Support ZigZags:1
;Minimum Support X/Y Distance:0.2
;Support Line Distance:2.67
; ---------PrintSpeed & Travel----------
;Enable Print Cool:true
;Avoid Printed Parts Traveling:true
;Enable Retraction:true
;Retraction Distance:0.8
;Retraction Speed:40
;Retraction Prime Speed:40
;Maximum Retraction Count:100
;Minimum Extrusion Distance Window:0.8
;Z Hop When Retracted:false
;Z Hop Height:0.2
;Retract Before Outer Wall:true

;Outer Wall Speed:60
;Inner Wall Speed:90
;Infill Speed:180
;Top/Bottom Speed:50
;Travel Speed:150
;Initial Layer Speed:30
;Skirt/Brim Speed:25
;Prime Tower Speed:60
;Outer Wall Acceleration:1000
;Inner Wall Acceleration:2000
;Infill Acceleration:2500
;Top/Bottom Acceleration:2500
;Travel Acceleration:2500
;Initial Layer Print Acceleration:500
;Initial Layer Travel Acceleration:500
;Skirt/Brim Acceleration:500
;Combing Mode:noskin
; --------SpecialModel&Mesh Fixes--------
;Union Overlapping Volum:true
;Remove All Holes:false
;Maximum Travel Resolution:0.25
;Maximum Deviation:0.05
;Maximum Model Angle:0.872767
;IS Mold Print:false
;Make Overhang Printable:false
;Enable Coasting:false
;Coasting Volumes:0.064
;Coasting Speed:0.9
;Raft AirGap:0.25
;Layer0 ZOverLap:0.13
;---------------------End of Head--------------------------
M140 S60
M105
M190 S60
M104 S205
M82 ;absolute extrusion mode
M220 S100 ;Reset Feedrate
M221 S100 ;Reset Flowrate

G28 ;Home

G92 E0 ;Reset Extruder
G1 Z2.0 F3000 ;Move Z Axis up
G1 X10.1 Y20 Z0.28 F5000.0 ;Move to start position
M109 S205.000000
G1 X10.1 Y145.0 Z0.28 F1500.0 E15 ;Draw the first line
G1 X10.4 Y145.0 Z0.28 F5000.0 ;Move to side a little
G1 X10.4 Y20 Z0.28 F1500.0 E30 ;Draw the second line
G92 E0  ;Reset Extruder
G1 E-1.0000 F1800 ;Retract a bit
G1 Z2.0 F3000 ;Move Z Axis up
G1 E0.0000 F1800 

G92 E0
G92 E0
G1 F2400 E-0.8
;LAYER_COUNT:51

;LAYER:0
M106 S0
M106 P2 S0
M204 S500
;MESH:0_0
G0 F4800 X80.621 Y87.188 Z0.2
;TYPE:WALL-INNER
G1 F2400 E0
G1 F1800 X80.621 Y132.798 E1.51682
G1 X102.893 Y180.329 E3.26245
G1 X117.107 Y180.329 E3.73515
G1 X139.379 Y132.798 E5.48079
G1 X139.379 Y88.88 E6.94133
G1 X139.379 Y87.188 E6.9976
G1 X117.107 Y39.671 E8.74281
G1 X102.893 Y39.671 E9.21552
G1 X80.621 Y87.188 E10.96073
G0 F4800 X80.221 Y87.099
;TYPE:WALL-OUTER
G1 F1800 X80.221 Y132.887 E12.45301
G1 X102.639 Y180.729 E14.17493
G1 X117.361 Y180.729 E14.65474
G1 X139.779 Y132.887 E16.37665
G1 X139.779 Y88.88 E17.81089
G1 X139.779 Y87.099 E17.86893
G1 X117.361 Y39.271 E19.59044
G1 X102.639 Y39.271 E20.07024
G1 X80.221 Y87.099 E21.79175
G0 F4800 X80.221 Y87.299
;;retract;;
G1 F2400 E21.23175
G1 X80.221 Y89.299 E21.00375
G1 F2400 E20.99175
G0 F4800 X80.772 Y87.103
G0 X85.929 Y75.392
G0 X106.602 Y86.487
G0 X110 Y86.675
;TYPE:WALL-INNER
G1 F2400 E21.79175
G1 F1800 X110.12 Y86.484 E21.79925
G1 X110.24 Y86.441 E21.80349
G1 X110.285 Y86.432 E21.80502
G1 X110.308 Y86.429 E21.80579
G1 X110.322 Y86.428 E21.80625
G1 X110.331 Y86.427 E21.80655
G1 X110.338 Y86.426 E21.80679
G1 X110.343 Y86.426 E21.80696
G1 X110.347 Y86.426 E21.80709
G1 X110.35 Y86.426 E21.80719
G1 X110.353 Y86.426 E21.80729
G1 X110.357 Y86.425 E21.80743
G1 X110.36 Y86.425 E21.80753
G1 X110.365 Y86.425 E21.80769
G1 X110.367 Y86.425 E21.80776
G1 X110.397 Y86.425 E21.80876
G1 X110.427 Y86.427 E21.80976
G1 X110.459 Y86.43 E21.81082
G1 X113.456 Y86.833 E21.91139
G1 X113.494 Y86.84 E21.91268
G1 X113.533 Y86.849 E21.91401
G1 X116.431 Y87.635 E22.01387
G1 X116.468 Y87.646 E22.01515
G1 X116.505 Y87.66 E22.01646
G1 X119.285 Y88.821 E22.11666
G1 X119.32 Y88.837 E22.11794
G1 X119.355 Y88.856 E22.11926
G1 X121.949 Y90.363 E22.21903
G1 X121.982 Y90.384 E22.22033
G1 X122.014 Y90.407 E22.22164
G1 X124.391 Y92.237 E22.3214
G1 X124.45 Y92.289 E22.32402
G1 X126.572 Y94.419 E22.42401
G1 X126.624 Y94.477 E22.4266
G1 X128.45 Y96.864 E22.52654
G1 X128.493 Y96.93 E22.52916
G1 X129.992 Y99.535 E22.62912
G1 X130.026 Y99.605 E22.6317
G1 X131.172 Y102.376 E22.73143
G1 X131.198 Y102.45 E22.73403
G1 X131.975 Y105.359 E22.83417
G1 X131.99 Y105.436 E22.83678
G1 X132.381 Y108.413 E22.93663
G1 X132.386 Y108.491 E22.93923
G1 X132.386 Y111.494 E23.0391
G1 X132.381 Y111.572 E23.0417
G1 X131.99 Y114.55 E23.14159
G1 X131.986 Y114.576 E23.14246
G1 X131.975 Y114.627 E23.1442
G1 X131.197 Y117.536 E23.24434
G1 X131.172 Y117.61 E23.24694
G1 X130.031 Y120.374 E23.34638
G1 X129.996 Y120.445 E23.34901
G1 X128.493 Y123.054 E23.44915
G1 X128.45 Y123.118 E23.45171
G1 X126.628 Y125.503 E23.55152
G1 X126.576 Y125.562 E23.55414
G1 X124.454 Y127.692 E23.65413
G1 X124.395 Y127.744 E23.65674
G1 X122.014 Y129.579 E23.75671
G1 X121.982 Y129.602 E23.75802
G1 X121.949 Y129.623 E23.75932
G1 X119.356 Y131.129 E23.85905
G1 X119.321 Y131.148 E23.86037
G1 X119.286 Y131.164 E23.86165
G1 X116.505 Y132.325 E23.96187
G1 X116.468 Y132.339 E23.96319
G1 X116.431 Y132.35 E23.96447
G1 X113.533 Y133.136 E24.06433
G1 X113.494 Y133.145 E24.06566
G1 X113.456 Y133.152 E24.06695
G1 X110.459 Y133.556 E24.16752
G1 X110.428 Y133.559 E24.16855
G1 X110.397 Y133.561 E24.16959
G1 X110.367 Y133.561 E24.17058
G1 X110.365 Y133.561 E24.17065
G1 X110.361 Y133.561 E24.17078
G1 X110.359 Y133.561 E24.17085
G1 X110.355 Y133.561 E24.17098
G1 X110.35 Y133.56 E24.17115
G1 X110.347 Y133.56 E24.17125
G1 X110.343 Y133.56 E24.17139
G1 X110.338 Y133.56 E24.17155
G1 X110.331 Y133.559 E24.17179
G1 X110.322 Y133.558 E24.17209
G1 X110.308 Y133.557 E24.17255
G1 X110.285 Y133.554 E24.17333
G1 X110.24 Y133.545 E24.17485
G1 X110.12 Y133.502 E24.17909
G1 X110 Y133.329 E24.18609
G1 X109.88 Y133.502 E24.19309
G1 X109.76 Y133.545 E24.19733
G1 X109.715 Y133.554 E24.19886
G1 X109.692 Y133.557 E24.19963
G1 X109.678 Y133.558 E24.2001
G1 X109.669 Y133.559 E24.2004
G1 X109.662 Y133.56 E24.20063
G1 X109.657 Y133.56 E24.2008
G1 X109.653 Y133.56 E24.20093
G1 X109.65 Y133.56 E24.20103
G1 X109.647 Y133.56 E24.20113
G1 X109.643 Y133.561 E24.20127
G1 X109.64 Y133.561 E24.20137
G1 X109.635 Y133.561 E24.20154
G1 X109.633 Y133.561 E24.2016
G1 X109.603 Y133.561 E24.2026
G1 X109.572 Y133.559 E24.20363
G1 X106.619 Y133.318 E24.30217
G1 X106.582 Y133.314 E24.3034
G1 X106.544 Y133.307 E24.30469
G1 X103.668 Y132.698 E24.40245
G1 X103.631 Y132.689 E24.40372
G1 X103.593 Y132.677 E24.40505
G1 X100.822 Y131.705 E24.5027
G1 X100.787 Y131.692 E24.50395
G1 X100.752 Y131.675 E24.50524
G1 X98.126 Y130.359 E24.60292
G1 X98.093 Y130.341 E24.60417
G1 X98.06 Y130.321 E24.60546
G1 X95.614 Y128.677 E24.70347
G1 X95.553 Y128.63 E24.70603
G1 X93.347 Y126.693 E24.80366
G1 X93.293 Y126.639 E24.8062
G1 X91.349 Y124.435 E24.90393
G1 X91.302 Y124.374 E24.90649
G1 X89.651 Y121.936 E25.00442
G1 X89.612 Y121.87 E25.00696
G1 X88.29 Y119.248 E25.10462
G1 X88.26 Y119.178 E25.10715
G1 X87.282 Y116.41 E25.20478
G1 X87.261 Y116.336 E25.20734
G1 X86.642 Y113.457 E25.30527
G1 X86.638 Y113.435 E25.30602
G1 X86.631 Y113.381 E25.30783
G1 X86.383 Y110.429 E25.40635
G1 X86.381 Y110.379 E25.40801
G1 X86.385 Y110.314 E25.41018
G1 X86.387 Y110.293 E25.41088
G1 X86.395 Y110.251 E25.4123
G1 X86.431 Y110.139 E25.41621
G1 X86.624 Y110 E25.42412
G1 X86.431 Y109.861 E25.43203
G1 X86.395 Y109.749 E25.43594
G1 X86.387 Y109.707 E25.43737
G1 X86.385 Y109.686 E25.43807
G1 X86.381 Y109.621 E25.44023
G1 X86.383 Y109.571 E25.4419
G1 X86.629 Y106.616 E25.54051
G1 X86.64 Y106.54 E25.54306
G1 X87.25 Y103.694 E25.63986
G1 X87.271 Y103.621 E25.64239
G1 X88.253 Y100.825 E25.74094
G1 X88.283 Y100.754 E25.7435
G1 X89.609 Y98.122 E25.84151
G1 X89.648 Y98.056 E25.84406
G1 X91.296 Y95.619 E25.9419
G1 X91.343 Y95.558 E25.94446
G1 X93.284 Y93.356 E26.04208
G1 X93.338 Y93.302 E26.04462
G1 X95.549 Y91.359 E26.14251
G1 X95.61 Y91.312 E26.14507
G1 X98.053 Y89.668 E26.243
G1 X98.086 Y89.648 E26.24428
G1 X98.119 Y89.63 E26.24553
G1 X100.745 Y88.314 E26.34321
G1 X100.78 Y88.297 E26.34451
G1 X100.815 Y88.284 E26.34575
G1 X103.587 Y87.311 E26.44345
G1 X103.624 Y87.299 E26.44474
G1 X103.661 Y87.29 E26.44601
G1 X106.541 Y86.678 E26.54393
G1 X106.567 Y86.673 E26.54481
G1 X106.592 Y86.67 E26.54564
G1 X106.617 Y86.667 E26.54648
G1 X109.572 Y86.427 E26.64508
G1 X109.603 Y86.425 E26.64611
G1 X109.633 Y86.425 E26.64711
G1 X109.635 Y86.425 E26.64717
G1 X109.64 Y86.425 E26.64734
G1 X109.643 Y86.425 E26.64744
G1 X109.647 Y86.426 E26.64758
G1 X109.65 Y86.426 E26.64768
G1 X109.653 Y86.426 E26.64778
G1 X109.657 Y86.426 E26.64791
G1 X109.662 Y86.426 E26.64808
G1 X109.669 Y86.427 E26.64831
G1 X109.678 Y86.428 E26.64861
G1 X109.692 Y86.429 E26.64908
G1 X109.715 Y86.432 E26.64985
G1 X109.76 Y86.441 E26.65138
G1 X109.88 Y86.484 E26.65562
G1 X110 Y86.675 E26.66312
G0 F4800 X110.293 Y86.845
;TYPE:WALL-OUTER
G1 F1800 X110.333 Y86.83 E26.66451
G1 X110.348 Y86.827 E26.66501
G1 X110.355 Y86.826 E26.66524
G1 X110.36 Y86.826 E26.6654
G1 X110.363 Y86.826 E26.6655
G1 X110.365 Y86.825 E26.66557
G1 X110.367 Y86.825 E26.66564
G1 X110.368 Y86.825 E26.66567
G1 X110.37 Y86.825 E26.66573
G1 X110.372 Y86.825 E26.6658
G1 X110.373 Y86.825 E26.66583
G1 X110.375 Y86.825 E26.6659
G1 X110.385 Y86.825 E26.66622
G1 X110.395 Y86.826 E26.66655
G1 X110.406 Y86.827 E26.66691
G1 X113.403 Y87.23 E26.76547
G1 X113.415 Y87.232 E26.76586
G1 X113.428 Y87.235 E26.7663
G1 X116.326 Y88.021 E26.86416
G1 X116.339 Y88.025 E26.8646
G1 X116.351 Y88.029 E26.86501
G1 X119.131 Y89.19 E26.9632
G1 X119.143 Y89.196 E26.96364
G1 X119.154 Y89.202 E26.96405
G1 X121.748 Y90.709 E27.06182
G1 X121.759 Y90.716 E27.06224
G1 X121.77 Y90.724 E27.06269
G1 X124.147 Y92.554 E27.16046
G1 X124.167 Y92.571 E27.16131
G1 X126.289 Y94.701 E27.2593
G1 X126.306 Y94.72 E27.26013
G1 X128.132 Y97.107 E27.35808
G1 X128.146 Y97.129 E27.35893
G1 X129.645 Y99.734 E27.45688
G1 X129.657 Y99.758 E27.45776
G1 X130.803 Y102.529 E27.55548
G1 X130.811 Y102.553 E27.55631
G1 X131.588 Y105.462 E27.65444
G1 X131.593 Y105.488 E27.6553
G1 X131.984 Y108.465 E27.75316
G1 X131.986 Y108.491 E27.75401
G1 X131.986 Y111.494 E27.85188
G1 X131.984 Y111.52 E27.85273
G1 X131.593 Y114.498 E27.95062
G1 X131.592 Y114.507 E27.95092
G1 X131.588 Y114.524 E27.95148
G1 X130.81 Y117.433 E28.04962
G1 X130.802 Y117.457 E28.05045
G1 X129.661 Y120.221 E28.1479
G1 X129.649 Y120.245 E28.14878
G1 X128.146 Y122.854 E28.24691
G1 X128.132 Y122.875 E28.24773
G1 X126.31 Y125.26 E28.34555
G1 X126.293 Y125.28 E28.3464
G1 X124.171 Y127.41 E28.44439
G1 X124.151 Y127.427 E28.44525
G1 X121.77 Y129.262 E28.54322
G1 X121.759 Y129.27 E28.54366
G1 X121.748 Y129.277 E28.54409
G1 X119.155 Y130.783 E28.64182
G1 X119.144 Y130.789 E28.64222
G1 X119.132 Y130.795 E28.64266
G1 X116.351 Y131.956 E28.74088
G1 X116.339 Y131.96 E28.74129
G1 X116.326 Y131.964 E28.74173
G1 X113.428 Y132.75 E28.8396
G1 X113.415 Y132.753 E28.84003
G1 X113.403 Y132.755 E28.84043
G1 X110.406 Y133.159 E28.93899
G1 X110.395 Y133.16 E28.93935
G1 X110.385 Y133.161 E28.93967
G1 X110.375 Y133.161 E28.94
G1 X110.373 Y133.161 E28.94006
G1 X110.372 Y133.161 E28.9401
G1 X110.369 Y133.161 E28.94019
G1 X110.367 Y133.161 E28.94026
G1 X110.365 Y133.161 E28.94032
G1 X110.363 Y133.16 E28.9404
G1 X110.36 Y133.16 E28.9405
G1 X110.355 Y133.16 E28.94066
G1 X110.348 Y133.159 E28.94089
G1 X110.333 Y133.156 E28.94139
G1 X110.293 Y133.141 E28.94278
G1 F1846.2 X110.19 Y132.978 E28.94891
G1 F1899.7 X110.19 Y114.272 E29.52655
G1 F1777.8 X110.163 Y113.988 E29.53596
G1 F1666.7 X110.163 Y113.804 E29.54244
G1 X109.981 Y113.775 E29.54893
G1 F1764.7 X109.768 Y113.717 E29.55627
G1 F1978 X109.256 Y113.615 E29.57175
G1 F2099.1 X109.231 Y113.608 E29.57247
G1 X109.205 Y113.598 E29.57325
G1 F1983.5 X108.783 Y113.404 E29.58699
G1 F1972.6 X108.192 Y113.085 E29.60696
G1 F2063 X108.177 Y113.076 E29.60746
G1 F2051.3 X108.146 Y113.054 E29.60855
G1 F1967.2 X107.962 Y112.888 E29.61594
G1 F1945.9 X107.343 Y112.257 E29.64258
G1 F1994.5 X107.338 Y112.251 E29.64281
G1 F1978 X107.307 Y112.213 E29.64427
G1 F1945.9 X107.291 Y112.186 E29.64521
G1 F1920 X106.82 Y111.27 E29.67669
G1 F1925.1 X106.791 Y111.203 E29.67891
G1 F1951.2 X106.787 Y111.191 E29.67929
G1 F1967.2 X106.778 Y111.16 E29.68025
G1 F1972.6 X106.776 Y111.148 E29.68062
G1 F1889.8 X106.618 Y110.257 E29.70871
G1 F1726.6 X106.563 Y110.041 E29.71628
G1 F1589.4 X106.545 Y110.004 E29.7178
G1 F1582.4 X106.561 Y109.973 E29.71909
G1 F1710.2 X106.612 Y109.782 E29.72587
G1 F1804.5 X106.62 Y109.739 E29.72729
G1 F1879.9 X106.774 Y108.852 E29.75539
G1 F1951.2 X106.776 Y108.841 E29.75572
G1 F1935.5 X106.789 Y108.796 E29.75714
G1 F1894.7 X106.821 Y108.721 E29.75967
G1 F1879.9 X107.292 Y107.803 E29.79187
G1 F1899.7 X107.302 Y107.785 E29.7925
G1 F1914.9 X107.313 Y107.771 E29.79305
G1 F1930.3 X107.334 Y107.746 E29.79404
G1 F1935.5 X107.34 Y107.74 E29.7943
G1 F1884.8 X107.969 Y107.095 E29.82234
G1 F1894.7 X108.141 Y106.941 E29.82949
G1 F1961.9 X108.147 Y106.936 E29.82972
G1 F1972.6 X108.173 Y106.918 E29.83066
G1 F1978 X108.188 Y106.909 E29.83118
G1 F1884.8 X108.789 Y106.583 E29.85246
G1 F1889.8 X109.202 Y106.393 E29.86657
G1 F1989 X109.228 Y106.383 E29.86739
G1 X109.256 Y106.376 E29.86824
G1 F1875 X109.778 Y106.272 E29.8849
G1 F1777.8 X109.785 Y106.27 E29.88514
G1 F1698.1 X109.97 Y106.221 E29.89175
G1 F1621.6 X110.157 Y106.191 E29.8986
G1 X110.157 Y106.002 E29.90544
G1 F1743.3 X110.188 Y105.753 E29.91388
G1 F1894.7 X110.19 Y105.687 E29.91593
G1 F1899.7 X110.19 Y87.025 E30.49221
G1 F1850.9 X110.293 Y86.845 E30.49878
G0 F4800 X110.333 Y86.83
G0 X110.348 Y86.827
